icon_installer/data/icons/scalable/actions/show-move-to-window-symbolic.svg

<?xml version="1.0" encoding="UTF-8"?>
<svg height="16px" viewBox="0 0 16 16" width="16px" xmlns="http://www.w3.org/2000/svg">
    <g fill="#222222">
        <path d="m 2 0 c -1.214844 0 -2 0.828125 -2 2 v 2.027344 h 13.984375 v 9.972656 h -8.054687 v 2 h 8.054687 c 0.996094 0 1.996094 -1 2 -2 v -12 c 0 -1.238281 -0.828125 -2 -2 -2 z m 0 0"/>
        <path d="m 3 13 v -1 c 0 -0.257812 0.128906 -0.527344 0.3125 -0.71875 l 1.28125 -1.28125 h -4.59375 v -2 h 4.59375 l -1.28125 -1.28125 c -0.183594 -0.191406 -0.3125 -0.460938 -0.3125 -0.71875 v -1 h 1 c 0.308594 0 0.550781 0.089844 0.75 0.28125 l 3.65625 3.71875 l -3.65625 3.71875 c -0.199219 0.191406 -0.441406 0.28125 -0.75 0.28125 z m 0 0"/>
    </g>
</svg>

<svg xmlns="http://www.w3.org/2000/svg" width="16" height="16"><g fill="#222"><path d="M2 0C.785 0 0 .828 0 2v2.027h13.984V14H5.93v2h8.054c.996 0 1.996-1 2-2V2c0-1.238-.828-2-2-2zm0 0"/><path d="M3 13v-1c0-.258.129-.527.313-.719L4.593 10H0V8h4.594L3.312 6.719C3.13 6.527 3 6.258 3 6V5h1c.309 0 .55.09.75.281L8.406 9 4.75 12.719c-.2.191-.441.281-.75.281zm0 0"/></g></svg>
